**kern	**kern
*staff2	*staff1
*clefF4	*clefG2
*k[f#c#g#]	*k[f#c#g#]
*M3/4	*M3/4
*A:	*A:
=-	=-
8EE]	8e
=233	=233
(4C#' 4E' 4A'	(4e' 4ee'
4C#' 4E' 4A'	4e' 4ee'
4C#') 4E' 4A'	4e') 4ee'
=234	=234
4BB 4E 4G#	(8eL 8ee
.	8ddJ)
4D 4E 4B	4e 4b
8r	8r
8D 8E 8B	8e
=235	=235
8C#L 8E 8A	8eL 8ee
8C#J 8E 8A	8eJ 8ee
8C#L 8E 8A	8eL 8ee
8C#J 8E 8A	8eJ 8ee
8C#L 8E 8A	8eL 8ee
8C#J 8E 8A	8eJ 8ee
=236	=236
4BB 4E 4G#	(8eL 8ee
.	8ddJ)
4D 4E 4B	4e 4b
4r	8r
.	8e
=237	=237
4C# 4E 4A	16aLL
.	16g#
.	16b
.	16aJJ
4r	16cc#LL
.	16b
.	16dd
.	16cc#JJ
4r	16eeLL
.	16dd#
.	16ff#
.	16eeJJ
=238	=238
2r	16aaLL
.	16gg#
.	16bb
.	16aaJJ
.	16ccc#LL
.	16bb
.	16ddd
.	16ccc#JJ
16r	4eee
16AALL	.
16C#	.
16EJJ	.
=239	=239
16AA 16A	16r
16r	16c#LL
8r	16e
.	16aJJ
4r	4cc#
4E 4d	4g# 4b
=240	=240
4A 4c#	4a
4AA	16r
.	16eLL
.	16f#
.	16g#JJ
=	=
*-	*-
